resources/svg/android.svg

<svg xmlns="http://www.w3.org/2000/svg" viewBox="0 0 24 24" fill="currentColor"><path fill="currentColor" fill-rule="evenodd" d="M5.68524564,7.91390616 L18.4032637,7.91390616 L18.4032637,18.2777185 C18.4032637,18.8934049 17.9041016,19.392567 17.2891666,19.392567 L16.0152889,19.392567 L16.0152889,22.54887 C16.0152889,23.3504036 15.3759782,24 14.5867968,24 C13.7955958,24 13.1572245,23.3504036 13.1572245,22.54887 L13.1572245,19.392567 L10.9323651,19.392567 L10.9323651,22.54887 C10.9323651,23.3504036 10.2917863,24 9.50265183,24 C8.71365828,24 8.07312646,23.3504036 8.07312646,22.54887 L8.07312646,19.392567 L6.80037593,19.392567 C6.18530006,19.392567 5.68519867,18.8934049 5.68519867,18.2777185 L5.68519867,7.91390616 L5.68524564,7.91390616 Z M3.19295784,7.82931914 C2.39574512,7.82931914 1.75,8.48511514 1.75,9.2946801 L1.75,15.0216583 C1.75,15.8302839 2.39574512,16.4872071 3.19295784,16.4872071 C3.99031146,16.4872071 4.63591568,15.8302839 4.63591568,15.0216583 L4.63591568,9.2946801 C4.63591568,8.48511514 3.99031146,7.82931914 3.19295784,7.82931914 L3.19295784,7.82931914 Z M18.4033106,6.86955468 L5.68524564,6.86955468 C5.84220834,5.05767343 7.01754994,3.49847301 8.70952521,2.59567916 L7.50032062,0.820150132 C7.33725225,0.580713909 7.39877862,0.254013563 7.63868451,0.0909921564 C7.8783086,-0.07202925 8.20435141,-0.0100332096 8.36821822,0.229215147 L9.68615071,2.16574601 C10.4168586,1.91306518 11.2100322,1.76798505 12.0442547,1.76798505 C12.8794634,1.76798505 13.672684,1.91306518 14.4033449,2.16607478 L15.7212774,0.229919647 C15.8831246,-0.00998624287 16.2102007,-0.0719822833 16.4498248,0.0910391231 C16.6897307,0.25406053 16.7512571,0.580760876 16.5881887,0.820197099 L15.3799704,2.59572613 C17.0718987,3.49795638 18.2464419,5.0571568 18.4033106,6.86955468 L18.4033106,6.86955468 Z M10.0653129,4.40760737 C10.0653129,4.01905189 9.75068296,3.70390535 9.36226837,3.70390535 C8.97286748,3.70390535 8.65823758,4.01905189 8.65823758,4.40760737 C8.65823758,4.79597499 8.97390075,5.11098063 9.36226837,5.11098063 C9.75063599,5.11098063 10.0653129,4.79597499 10.0653129,4.40760737 L10.0653129,4.40760737 Z M15.5194145,4.40760737 C15.5194145,4.01905189 15.2037044,3.70390535 14.8153837,3.70390535 C14.4259828,3.70390535 14.1122923,4.01905189 14.1122923,4.40760737 C14.1122923,4.79597499 14.4259828,5.11098063 14.8153837,5.11098063 C15.2037514,5.11098063 15.5194145,4.79597499 15.5194145,4.40760737 L15.5194145,4.40760737 Z M20.8965378,7.82729957 C20.1001704,7.82729957 19.4525936,8.48408187 19.4525936,9.2936938 L19.4525936,15.0226915 C19.4525936,15.8323035 20.1001704,16.4892736 20.8965378,16.4892736 C21.6939384,16.4892736 22.3384623,15.8323504 22.3384623,15.0226915 L22.3384623,9.2936938 C22.3385093,8.48408187 21.6939384,7.82729957 20.8965378,7.82729957 L20.8965378,7.82729957 Z"/></svg>

<svg viewBox="0 0 24 24"><path fill="currentColor" fill-rule="evenodd" d="M5.685 7.914h12.718v10.364c0 .615-.499 1.115-1.114 1.115h-1.274v3.156A1.44 1.44 0 0 1 14.587 24a1.44 1.44 0 0 1-1.43-1.451v-3.156h-2.225v3.156A1.44 1.44 0 0 1 9.502 24a1.44 1.44 0 0 1-1.429-1.451v-3.156H6.8c-.615 0-1.115-.5-1.115-1.115V7.914zm-2.492-.085c-.797 0-1.443.656-1.443 1.466v5.727c0 .808.646 1.465 1.443 1.465s1.443-.657 1.443-1.465V9.295c0-.81-.646-1.466-1.443-1.466zm15.21-.96H5.685C5.842 5.059 7.018 3.5 8.71 2.597L7.5.82a.525.525 0 1 1 .868-.59l1.318 1.936a7.204 7.204 0 0 1 4.717 0L15.721.23a.524.524 0 1 1 .867.59L15.38 2.596c1.692.902 2.866 2.461 3.023 4.274zm-8.338-2.461a.703.703 0 1 0-1.406-.001a.703.703 0 0 0 1.406 0zm5.454 0a.704.704 0 1 0-1.408 0a.704.704 0 0 0 1.408 0zm5.378 3.42c-.797 0-1.444.656-1.444 1.466v5.729c0 .81.647 1.466 1.444 1.466c.797 0 1.441-.657 1.441-1.466v-5.73c0-.809-.644-1.466-1.441-1.466z"/></svg>
